X: 5297
T: Brother's
R: jig
M: 6/8
K: Adorian
A2G|:"Amin/E" E2A AGA|E2A AGA|"G/D" D2G BAG|D2G BAG|
"Amin/E" E2A ABA|E2A "F"c2d|"Amin/E" edc "G/D" dcB|1 "Amin/E" A3 A2G:|2 "Amin/E" cAG AB/c/d||
|:"Amin/E" e2e edc|"G/D" d2d dcB|"Amin/E" c2 c cBA|"G/D" B2 B Bcd|
"Amin/E" e2e edc|"G/D" d2d dcB|"Amin/E" cBA "G/D" BAG|1 "Amin/E" A3 Bcd:|2 "Amin/E" A3 A2G||

